X: 1
T: Din Tarrant's (5)
B: Johnny O'Leary of Sliabh Luachra
R: Polka
Z: Paul Kinder <ptk1126@MINDSPRING.COM irtrad-l 2000-08-09
M: 2/4
L: 1/8
K: G
G2 GA | BA B/2c/2d | GA/2G/2 dB | AG ED |
G>F GA | BA Bd | e/2f/2g f/2g/2a | gG G2 :|
|: Bd de/2f/2 | gf ed | Bd de/2f/2 | gB AG/2A/2 |
Bd de/2f/2 | gf ed | B/2c/2d B/2c/2d | BG G2 :|
